lib/oojs-ui/themes/apex/images/icons/image.svg

<?xml version="1.0" encoding="utf-8"?>
<svg xmlns="http://www.w3.org/2000/svg" width="24" height="24" viewBox="0 0 24 24">
    <g id="image">
        <path id="frame" d="M4 5v13h16v-13zm15 12h-14v-11h14z"/>
        <path id="mountains" d="M9.5 10l2.328 2.312-1.312 1.094.875 1.032 4.109-3.438 2.5 2v3h-12v-2.5z"/>
        <path id="sky" d="M9.516 7.844l3.046 3.172 2.938-2.016 2.5 2v-4h-12v5z"/>
    </g>
</svg>

<?xml version="1.0" encoding="utf-8"?>
<svg xmlns="http://www.w3.org/2000/svg" width="24" height="24" viewBox="0 0 24 24">
    <g id="image">
        <path id="frame" d="M4 5v13h16V5zm15 12H5V6h14z"/>
        <path id="mountains" d="M9.5 10l2.328 2.312-1.312 1.094.875 1.032L15.5 11l2.5 2v3H6v-2.5z"/>
        <path id="sky" d="M9.516 7.844l3.046 3.172L15.5 9l2.5 2V7H6v5z"/>
    </g>
</svg>
